X:1
T:Title
%%score { ( 1 3 ) | ( 2 4 ) }
L:1/8
Q:1/4=132
M:6/4
K:D
V:1 treble nm="Grand Piano"
V:3 treble 
V:2 bass 
V:4 bass 
V:1
 F2 =F2 ^F2 A4 Bc | A12 | F2 =F2 ^F2 A4 Bc | A12 | G2 F2 G2 [CE]4 [^DF][EG] | %5
w: C.~Harold~Lowden * * * * *|||||
 [A,DF]2 [A,DF]2 [A,EG]2 [DFA]6 | [DGB]2 [DGB]2 [^DAB]2 [=D^GB]4 [CGc][Gd] | c2 c2 d2 e6 | %8
w: |||
 [Fd]2 [Fc]2 [Fd]2 [FA]4 GF | E2 B2 B2 B4 cd | e12[Q:1/4=130][Q:1/4=128][Q:1/4=126][Q:1/4=124] | %11
w: |||
 d12[Q:1/4=122][Q:1/4=120][Q:1/4=118][Q:1/4=116][Q:1/4=115][Q:1/4=113][Q:1/4=111][Q:1/4=109][Q:1/4=107][Q:1/4=105][Q:1/4=103][Q:1/4=101] |] %12
w: |
V:2
 [D,A,D]2 [D,^G,D]2 [D,A,D]2 .[D,A,D]6 | z4 [D,D][D,B,] .[D,A,]6 | %2
 [D,A,D]2 [D,^G,D]2 [D,A,D]2 .[D,A,D]6 | z4 [E,C][E,B,] .A,6 | %4
 [A,CE]2 [A,=C^D]2 [A,^CE]2 [A,,A,]4 [A,,A,][A,,A,] | D,2 D,2 D,2 D,6 | G,2 G,2 F,2 E,4 E,[E,B,] | %7
 [A,G]2 [A,EG]2 [A,B,G]2 [A,CG]6 | [D,A,]2 [D,A,]2 [D,A,]2 [D,D]4 [D,B,D][D,A,D] | %9
 [G,B,]2 [G,B,E]2 [F,A,^D]2 .[E,G,E]6 | z4 [E,B,][E,C] [E,D]4 E,A, | z4 B,G, .A,6 |] %12
V:3
 x12 | z4 FF .F6 | x12 | z4 GG .G6 | x12 | x12 | x12 | x12 | x12 | x12 | z4 ^GA B4 [DGB][E=Gc] | %11
 [DF]4 GE .F6 |] %12
V:4
 x12 | x12 | x12 | x12 | x12 | x12 | x12 | x12 | x12 | x12 | x12 | D,12 |] %12

